X: 22925
T: Larry O'Gaff's
R: jig
M: 6/8
K: Dmajor
|:dDD FDD|A3 BAF|~G3 FAF|EFA B2c|dDD FDD|A3 BAF|~G3 EAG|FDD D3:|
|:~d3 ~e3|fdB AFA|dcd efg|fdc d2A|ded dcB|AFd AFD|~G3 EAG|FDD D3:|

